poi/svg/1126.svg

<?xml version="1.0" encoding="UTF-8" standalone="no"?>
<svg
   xmlns:dc="http://purl.org/dc/elements/1.1/"
   xmlns:cc="http://creativecommons.org/ns#"
   xmlns:rdf="http://www.w3.org/1999/02/22-rdf-syntax-ns#"
   xmlns:svg="http://www.w3.org/2000/svg"
   xmlns="http://www.w3.org/2000/svg"
   xmlns:sodipodi="http://sodipodi.sourceforge.net/DTD/sodipodi-0.dtd"
   xmlns:inkscape="http://www.inkscape.org/namespaces/inkscape"
   inkscape:version="1.0 (4035a4fb49, 2020-05-01)"
   sodipodi:docname="1126.svg"
   id="svg20"
   version="1.2"
   viewBox="0 0 42.519639 42.519639"
   height="14.999999mm"
   width="14.999999mm">
  <metadata
     id="metadata24">
    <rdf:RDF>
      <cc:Work
         rdf:about="">
        <dc:format>image/svg+xml</dc:format>
        <dc:type
           rdf:resource="http://purl.org/dc/dcmitype/StillImage" />
        <dc:title>Qt SVG Document</dc:title>
      </cc:Work>
    </rdf:RDF>
  </metadata>
  <sodipodi:namedview
     inkscape:current-layer="svg20"
     inkscape:window-maximized="0"
     inkscape:window-y="0"
     inkscape:window-x="0"
     inkscape:cy="28.346482"
     inkscape:cx="28.346482"
     inkscape:zoom="5.8410537"
     showgrid="false"
     id="namedview22"
     inkscape:window-height="480"
     inkscape:window-width="1034"
     inkscape:pageshadow="2"
     inkscape:pageopacity="0"
     guidetolerance="10"
     gridtolerance="10"
     objecttolerance="10"
     borderopacity="1"
     bordercolor="#666666"
     pagecolor="#ffffff" />
  <title
     id="title2">Qt SVG Document</title>
  <desc
     id="desc4">Generated with Qt</desc>
  <defs
     id="defs6" />
  <g
     transform="translate(5.25984,5.25984)"
     id="g18"
     stroke-linejoin="bevel"
     stroke-linecap="square"
     fill-rule="evenodd"
     stroke-width="1"
     stroke="#000000"
     fill="none">
    <g
       id="g10"
       font-style="normal"
       font-weight="400"
       font-size="7.8px"
       font-family="'MS Shell Dlg 2'"
       stroke="none"
       fill-opacity="1"
       fill="#3d97f1">
      <path
         id="path8"
         d="M 37.2598,16 C 37.2598,27.7415 27.7415,37.2598 16,37.2598 4.25851,37.2598 -5.25984,27.7415 -5.25984,16 -5.25984,4.25851 4.25851,-5.25984 16,-5.25984 27.7415,-5.25984 37.2598,4.25851 37.2598,16"
         fill-rule="evenodd"
         vector-effect="non-scaling-stroke" />
    </g>
    <g
       id="g14"
       font-style="normal"
       font-weight="400"
       font-size="7.8px"
       font-family="'MS Shell Dlg 2'"
       transform="translate(16,12.0315)"
       stroke="none"
       fill-opacity="0.94902"
       fill="#ffffff">
      <path
         id="path12"
         d="m 3.95947,5.34863 c 1.23177,0.74186 2.43555,1.48023 3.61133,2.21509 1.17578,0.73486 2.22209,1.38924 3.1389,1.96314 0.9168,0.57384 1.6762,1.06034 2.2781,1.45924 0.6019,0.3989 0.9448,0.6544 1.0288,0.7663 0.098,0.126 0.0385,0.224 -0.1785,0.294 -0.2169,0.07 -0.4969,0.119 -0.8398,0.147 -0.3429,0.028 -0.7034,0.028 -1.0813,0 -0.3779,-0.028 -0.6929,-0.084 -0.9448,-0.168 C 10.7762,11.9694 10.4403,11.8119 9.96436,11.553 9.48844,11.294 8.92855,10.9686 8.28467,10.5767 7.64079,10.1847 6.92342,9.74731 6.13257,9.2644 5.34172,8.78149 4.51937,8.28109 3.66553,7.76318 L -1.5835,7.59521 -0.974609,9.86279 c 0.139974,0 0.251953,0.014 0.335937,0.042 0.32194,0.05598 0.6018881,0.14351 0.839844,0.26241 0.237956,0.119 0.356933,0.2625 0.356933,0.4305 0,0.1399 -0.069987,0.2624 -0.20996,0.3674 -0.139974,0.105 -0.3184412,0.1925 -0.535401,0.2624 -0.216959,0.07 -0.433919,0.119 -0.650879,0.147 -0.216955,0.028 -0.395425,0.014 -0.535405,-0.042 -0.62988,-0.1959 -0.90283,-0.4549 -0.81884,-0.7768 0.02799,-0.112 0.10148,-0.2345 0.22046,-0.3675 0.11897,-0.1329 0.29044,-0.22743 0.5144,-0.28341 L -2.15039,7.59521 -3.09521,7.55322 C -4.00505,7.6932 -4.84139,7.77718 -5.60425,7.80518 -6.36711,7.83317 -7.00749,7.77718 -7.52539,7.63721 L -7.90332,7.51123 -8.15527,8.33008 c 0.39192,0.08398 0.69637,0.21696 0.91333,0.39892 0.21696,0.18197 0.32544,0.34994 0.32544,0.50391 0,0.13997 -0.09449,0.25895 -0.28345,0.35693 -0.18897,0.09799 -0.40943,0.16797 -0.66138,0.20996 -0.25195,0.042 -0.5074,0.06999 -0.76636,0.08399 C -8.88664,9.89779 -9.0931,9.87679 -9.24707,9.8208 -9.55501,9.76481 -9.79647,9.64233 -9.97144,9.45337 -10.1464,9.2644 -10.2059,9.09993 -10.1499,8.95996 -10.0799,8.79199 -9.93994,8.61353 -9.72998,8.42456 -9.52002,8.2356 -9.12809,8.16911 -8.5542,8.2251 L -8.30225,7.36426 C -9.1001,7.08431 -9.625,6.74137 -9.87695,6.33545 -9.76497,6.27946 -9.69499,6.23747 -9.66699,6.20947 L -9.625,6.16748 c 0.02799,0 0.04199,-0.014 0.04199,-0.04199 l 0.04199,-0.04199 0.042,-0.042 0.04199,-0.04199 V 5.95752 L -9.41504,5.91553 V 5.87354 l 0.04199,-0.042 c 0.18197,0 0.38493,0 0.60889,0 0.22396,0 0.45492,-0.01399 0.69287,-0.04199 0.22396,-0.02799 0.45142,-0.04899 0.68237,-0.06299 0.23096,-0.01399 0.43042,-0.05599 0.59839,-0.12597 0.16797,-0.05599 0.32544,-0.11198 0.47241,-0.16797 0.14698,-0.05599 0.22046,-0.15397 0.22046,-0.29395 0,-0.13997 -0.11198,-0.25195 -0.33593,-0.33594 -0.15398,-0.06998 -0.38143,-0.10498 -0.68238,-0.10498 -0.30094,0 -0.64738,0.021 -1.0393,0.06299 C -8.64518,4.81673 -9.0931,4.88672 -9.49902,4.9707 -9.58301,4.78874 -9.73698,4.66976 -9.96094,4.61377 c 0,-0.05599 -0.007,-0.09798 -0.02099,-0.12598 C -9.99593,4.4598 -10.0029,4.4318 -10.0029,4.40381 -9.75098,4.12386 -9.41154,3.9034 -8.98462,3.74243 -8.5577,3.58146 -8.09928,3.48698 -7.60938,3.45898 L -9.14209,-0.530273 C -10.1499,-1.28613 -10.9757,-1.91252 -11.6196,-2.40942 c -0.6439,-0.49691 -0.9798,-0.78736 -1.0078,-0.87134 0,-0.09798 0.0909,-0.12948 0.2729,-0.09448 0.182,0.03499 0.4234,0.10148 0.7244,0.19946 0.3009,0.09798 0.6404,0.21696 1.0183,0.35693 0.3779,0.13998 0.74884,0.30095 1.11278,0.48291 0.16797,0.05599 0.5319,0.23446 1.09179,0.5354 0.5599,0.30095 1.28426,0.69987 2.1731,1.19678 0.88883,0.496908 1.92114,1.084798 3.09692,1.76367 1.17578,0.67888 2.43555,1.41724 3.7793,2.21509 0.125976,0.08398 0.300944,0.13997 0.5249,0.16797 0.22396,0.02799 0.46542,0.04199 0.72437,0.04199 0.25895,0 0.5249,-0.007 0.79785,-0.021 C 2.96216,3.54997 3.18262,3.52897 3.35059,3.50098 2.79069,3.09505 2.32178,2.77311 1.94385,2.53516 1.56592,2.2972 1.39095,2.15023 1.41895,2.09424 1.47493,1.96826 1.6849,1.92977 2.04883,1.97876 2.41276,2.02775 3.10563,2.2902 4.12744,2.76611 4.22542,2.79411 4.30941,2.8221 4.37939,2.8501 4.44938,2.87809 4.51237,2.91309 4.56836,2.95508 5.28223,2.43717 5.85262,1.90527 6.27954,1.35938 6.70646,0.813477 7.15088,0.484538 7.61279,0.372559 c 0.05599,0 0.14348,-0.006999 0.26245,-0.020996 0.11898,-0.013998 0.23446,-0.020997 0.34644,-0.020997 0.11198,0 0.18896,0.027995 0.23096,0.083985 C 8.49463,0.47054 8.48763,0.554525 8.43164,0.666504 8.34766,0.778483 8.23568,0.970947 8.0957,1.2439 7.95573,1.51685 7.77726,1.81079 7.5603,2.12573 7.34334,2.44067 7.11938,2.76261 6.88843,3.09155 6.65747,3.42049 6.41602,3.71794 6.16406,3.98389 6.96191,4.37581 7.67578,4.77474 8.30566,5.18066 8.93555,5.58659 9.27848,5.81755 9.33447,5.87354 9.39046,5.92952 9.43945,6.00651 9.48145,6.10449 9.52344,6.20247 9.50244,6.27246 9.41846,6.31445 9.33447,6.35645 9.17,6.36344 8.92505,6.33545 8.68009,6.30745 8.29867,6.19548 7.78076,5.99951 7.52881,5.88753 7.12288,5.70207 6.56299,5.44312 6.00309,5.18416 5.56917,4.90771 5.26123,4.61377 5.05127,4.76774 4.84131,4.90072 4.63135,5.0127 4.42139,5.12467 4.19743,5.23665 3.95947,5.34863 M 2.7627,7.19629 C 1.44694,6.37044 0.162679,5.55509 -1.09009,4.75024 -2.34285,3.94539 -3.42415,3.25602 -4.33398,2.68213 -5.83171,1.7723 -7.21045,0.855469 -8.47021,-0.0683594 L -7.25244,3.375 c 0.13997,-0.08398 0.34643,-0.22046 0.61938,-0.40942 0.27295,-0.18897 0.5494,-0.35344 0.82935,-0.49341 0.05599,0.05599 0.11548,0.09098 0.17847,0.10498 0.06298,0.014 0.12247,0.04899 0.17846,0.10498 -0.34993,0.11198 -0.63338,0.24845 -0.85034,0.40942 -0.21696,0.16097 -0.29744,0.25546 -0.24145,0.28345 0.15397,0.05599 0.35343,0.17147 0.59838,0.34644 0.24496,0.17496 0.50741,0.35343 0.78736,0.5354 0.27995,0.18196 0.55639,0.36043 0.82934,0.5354 0.27295,0.17496 0.51441,0.27644 0.72437,0.30444 0.08398,0 0.16797,-0.09448 0.25195,-0.28345 0.08399,-0.18896 0.13998,-0.40942 0.16797,-0.66137 0.57389,0.33593 1.19678,0.71386 1.86865,1.13378 C -0.638672,5.70557 0.0611979,6.14648 0.789063,6.6084 0.411133,6.72038 0.0437012,6.82536 -0.313232,6.92334 -0.670166,7.02132 -1.0236,7.09831 -1.37354,7.1543 L 2.7627,7.19629 m -4.09424,4.30421 c 0.15397,0.056 0.32194,0.077 0.503903,0.063 0.181966,-0.014 0.356934,-0.049 0.524903,-0.105 -0.167969,0.3219 -0.405925,0.4339 -0.713866,0.3359 -0.20996,-0.084 -0.34294,-0.1819 -0.39893,-0.2939 h 0.08399 m -7.5586,-1.1128 c -0.20996,-0.056 -0.34293,-0.175 -0.39892,-0.3569 0.15397,0.028 0.32894,0.042 0.5249,0.042 0.19596,0 0.41292,-0.028 0.65088,-0.08403 -0.15397,0.34993 -0.41292,0.48293 -0.77686,0.39893 M -10.1919,6.16748 c -0.028,0.13997 -0.049,0.29745 -0.063,0.47241 -0.014,0.17497 -0.049,0.37443 -0.105,0.59839 -0.0839,0.40593 -0.1679,0.75236 -0.2519,1.03931 -0.084,0.28694 -0.154,0.41642 -0.21,0.38843 -0.056,0 -0.07,-0.15048 -0.042,-0.45142 0.028,-0.30094 0.07,-0.65438 0.126,-1.0603 0.056,-0.22396 0.105,-0.41643 0.147,-0.5774 0.042,-0.16097 0.091,-0.31144 0.147,-0.45141 h -0.042 c -0.6019,-0.16797 -0.9309,-0.35694 -0.9869,-0.5669 -0.0559,-0.19596 0.245,-0.40592 0.9029,-0.62988 -0.056,-0.15397 -0.112,-0.29394 -0.168,-0.41992 -0.056,-0.12598 -0.112,-0.27295 -0.168,-0.44092 -0.1539,-0.43392 -0.2519,-0.80835 -0.2939,-1.12329 -0.042,-0.31494 -0.035,-0.48641 0.021,-0.5144 0.056,-0.028 0.1645,0.10148 0.3254,0.38842 0.161,0.28695 0.3115,0.64738 0.4514,1.0813 0.056,0.16797 0.098,0.32894 0.126,0.48291 0.028,0.15397 0.07,0.30795 0.126,0.46192 0.26595,0 0.45491,0.12597 0.56689,0.37793 0.34994,-0.08399 0.83985,-0.15398 1.46973,-0.20996 0.47591,-0.05599 0.88883,-0.06999 1.23877,-0.042 0.34993,0.028 0.5249,0.08399 0.5249,0.16797 0.028,0.08399 -0.13997,0.16097 -0.50391,0.23096 -0.36393,0.06999 -0.78385,0.13297 -1.25976,0.18896 -0.57389,0.06999 -1.04981,0.06999 -1.42774,0 C -9.56901,5.71257 -9.632,5.84554 -9.72998,5.95752 -9.82796,6.0695 -9.98193,6.13949 -10.1919,6.16748"
         fill-rule="evenodd"
         vector-effect="none" />
    </g>
    <g
       id="g16"
       font-style="normal"
       font-weight="400"
       font-size="7.8px"
       font-family="'MS Shell Dlg 2'"
       stroke="none"
       fill-opacity="1"
       fill="#3d97f1" />
  </g>
</svg>

<?xml version="1.0" encoding="UTF-8" standalone="no"?>
<svg width="11.2889mm" height="11.2889mm"
 viewBox="0 0 32 32"
 xmlns="http://www.w3.org/2000/svg" xmlns:xlink="http://www.w3.org/1999/xlink"  version="1.2" baseProfile="tiny">
<title>Qt SVG Document</title>
<desc>Generated with Qt</desc>
<defs>
</defs>
<g fill="none" stroke="black" stroke-width="1" fill-rule="evenodd" stroke-linecap="square" stroke-linejoin="bevel" >

<g fill="#3d97f1" fill-opacity="1" stroke="none" transform="matrix(1,0,0,1,0,0)"
font-family="MS Shell Dlg 2" font-size="7.8" font-weight="400" font-style="normal" 
>
<path vector-effect="non-scaling-stroke" fill-rule="evenodd" d="M37.2598,16 C37.2598,27.7415 27.7415,37.2598 16,37.2598 C4.25851,37.2598 -5.25984,27.7415 -5.25984,16 C-5.25984,4.25851 4.25851,-5.25984 16,-5.25984 C27.7415,-5.25984 37.2598,4.25851 37.2598,16 "/>
</g>

<g fill="#ffffff" fill-opacity="0.94902" stroke="none" transform="matrix(1,0,0,1,16,12.0315)"
font-family="MS Shell Dlg 2" font-size="7.8" font-weight="400" font-style="normal" 
>
<path vector-effect="none" fill-rule="evenodd" d="M3.95947,5.34863 C5.19124,6.09049 6.39502,6.82886 7.5708,7.56372 C8.74658,8.29858 9.79289,8.95296 10.7097,9.52686 C11.6265,10.1007 12.3859,10.5872 12.9878,10.9861 C13.5897,11.385 13.9326,11.6405 14.0166,11.7524 C14.1146,11.8784 14.0551,11.9764 13.8381,12.0464 C13.6212,12.1164 13.3412,12.1654 12.9983,12.1934 C12.6554,12.2214 12.2949,12.2214 11.917,12.1934 C11.5391,12.1654 11.2241,12.1094 10.9722,12.0254 C10.7762,11.9694 10.4403,11.8119 9.96436,11.553 C9.48844,11.294 8.92855,10.9686 8.28467,10.5767 C7.64079,10.1847 6.92342,9.74731 6.13257,9.2644 C5.34172,8.78149 4.51937,8.28109 3.66553,7.76318 L-1.5835,7.59521 L-0.974609,9.86279 C-0.834635,9.86279 -0.722656,9.87679 -0.638672,9.90479 C-0.316732,9.96077 -0.0367839,10.0483 0.201172,10.1672 C0.439128,10.2862 0.558105,10.4297 0.558105,10.5977 C0.558105,10.7376 0.488118,10.8601 0.348145,10.9651 C0.208171,11.0701 0.0297038,11.1576 -0.187256,11.2275 C-0.404215,11.2975 -0.621175,11.3465 -0.838135,11.3745 C-1.05509,11.4025 -1.23356,11.3885 -1.37354,11.3325 C-2.00342,11.1366 -2.27637,10.8776 -2.19238,10.5557 C-2.16439,10.4437 -2.0909,10.3212 -1.97192,10.1882 C-1.85295,10.0553 -1.68148,9.96077 -1.45752,9.90479 L-2.15039,7.59521 L-3.09521,7.55322 C-4.00505,7.6932 -4.84139,7.77718 -5.60425,7.80518 C-6.36711,7.83317 -7.00749,7.77718 -7.52539,7.63721 L-7.90332,7.51123 L-8.15527,8.33008 C-7.76335,8.41406 -7.4589,8.54704 -7.24194,8.729 C-7.02498,8.91097 -6.9165,9.07894 -6.9165,9.23291 C-6.9165,9.37288 -7.01099,9.49186 -7.19995,9.58984 C-7.38892,9.68783 -7.60938,9.75781 -7.86133,9.7998 C-8.11328,9.8418 -8.36873,9.86979 -8.62769,9.88379 C-8.88664,9.89779 -9.0931,9.87679 -9.24707,9.8208 C-9.55501,9.76481 -9.79647,9.64233 -9.97144,9.45337 C-10.1464,9.2644 -10.2059,9.09993 -10.1499,8.95996 C-10.0799,8.79199 -9.93994,8.61353 -9.72998,8.42456 C-9.52002,8.2356 -9.12809,8.16911 -8.5542,8.2251 L-8.30225,7.36426 C-9.1001,7.08431 -9.625,6.74137 -9.87695,6.33545 C-9.76497,6.27946 -9.69499,6.23747 -9.66699,6.20947 L-9.625,6.16748 C-9.59701,6.16748 -9.58301,6.15348 -9.58301,6.12549 L-9.54102,6.0835 L-9.49902,6.0415 L-9.45703,5.99951 L-9.45703,5.95752 L-9.41504,5.91553 L-9.41504,5.87354 L-9.37305,5.83154 C-9.19108,5.83154 -8.98812,5.83154 -8.76416,5.83154 C-8.5402,5.83154 -8.30924,5.81755 -8.07129,5.78955 C-7.84733,5.76156 -7.61987,5.74056 -7.38892,5.72656 C-7.15796,5.71257 -6.9585,5.67057 -6.79053,5.60059 C-6.62256,5.5446 -6.46509,5.48861 -6.31812,5.43262 C-6.17114,5.37663 -6.09766,5.27865 -6.09766,5.13867 C-6.09766,4.9987 -6.20964,4.88672 -6.43359,4.80273 C-6.58757,4.73275 -6.81502,4.69775 -7.11597,4.69775 C-7.41691,4.69775 -7.76335,4.71875 -8.15527,4.76074 C-8.64518,4.81673 -9.0931,4.88672 -9.49902,4.9707 C-9.58301,4.78874 -9.73698,4.66976 -9.96094,4.61377 C-9.96094,4.55778 -9.96794,4.51579 -9.98193,4.48779 C-9.99593,4.4598 -10.0029,4.4318 -10.0029,4.40381 C-9.75098,4.12386 -9.41154,3.9034 -8.98462,3.74243 C-8.5577,3.58146 -8.09928,3.48698 -7.60938,3.45898 L-9.14209,-0.530273 C-10.1499,-1.28613 -10.9757,-1.91252 -11.6196,-2.40942 C-12.2635,-2.90633 -12.5994,-3.19678 -12.6274,-3.28076 C-12.6274,-3.37874 -12.5365,-3.41024 -12.3545,-3.37524 C-12.1725,-3.34025 -11.9311,-3.27376 -11.6301,-3.17578 C-11.3292,-3.0778 -10.9897,-2.95882 -10.6118,-2.81885 C-10.2339,-2.67887 -9.86296,-2.5179 -9.49902,-2.33594 C-9.33105,-2.27995 -8.96712,-2.10148 -8.40723,-1.80054 C-7.84733,-1.49959 -7.12297,-1.10067 -6.23413,-0.60376 C-5.3453,-0.106852 -4.31299,0.481038 -3.13721,1.15991 C-1.96143,1.83879 -0.70166,2.57715 0.64209,3.375 C0.768066,3.45898 0.943034,3.51497 1.16699,3.54297 C1.39095,3.57096 1.63241,3.58496 1.89136,3.58496 C2.15031,3.58496 2.41626,3.57796 2.68921,3.56396 C2.96216,3.54997 3.18262,3.52897 3.35059,3.50098 C2.79069,3.09505 2.32178,2.77311 1.94385,2.53516 C1.56592,2.2972 1.39095,2.15023 1.41895,2.09424 C1.47493,1.96826 1.6849,1.92977 2.04883,1.97876 C2.41276,2.02775 3.10563,2.2902 4.12744,2.76611 C4.22542,2.79411 4.30941,2.8221 4.37939,2.8501 C4.44938,2.87809 4.51237,2.91309 4.56836,2.95508 C5.28223,2.43717 5.85262,1.90527 6.27954,1.35938 C6.70646,0.813477 7.15088,0.484538 7.61279,0.372559 C7.66878,0.372559 7.75627,0.36556 7.87524,0.351563 C7.99422,0.337565 8.1097,0.330566 8.22168,0.330566 C8.33366,0.330566 8.41064,0.358561 8.45264,0.414551 C8.49463,0.47054 8.48763,0.554525 8.43164,0.666504 C8.34766,0.778483 8.23568,0.970947 8.0957,1.2439 C7.95573,1.51685 7.77726,1.81079 7.5603,2.12573 C7.34334,2.44067 7.11938,2.76261 6.88843,3.09155 C6.65747,3.42049 6.41602,3.71794 6.16406,3.98389 C6.96191,4.37581 7.67578,4.77474 8.30566,5.18066 C8.93555,5.58659 9.27848,5.81755 9.33447,5.87354 C9.39046,5.92952 9.43945,6.00651 9.48145,6.10449 C9.52344,6.20247 9.50244,6.27246 9.41846,6.31445 C9.33447,6.35645 9.17,6.36344 8.92505,6.33545 C8.68009,6.30745 8.29867,6.19548 7.78076,5.99951 C7.52881,5.88753 7.12288,5.70207 6.56299,5.44312 C6.00309,5.18416 5.56917,4.90771 5.26123,4.61377 C5.05127,4.76774 4.84131,4.90072 4.63135,5.0127 C4.42139,5.12467 4.19743,5.23665 3.95947,5.34863 M2.7627,7.19629 C1.44694,6.37044 0.162679,5.55509 -1.09009,4.75024 C-2.34285,3.94539 -3.42415,3.25602 -4.33398,2.68213 C-5.83171,1.7723 -7.21045,0.855469 -8.47021,-0.0683594 L-7.25244,3.375 C-7.11247,3.29102 -6.90601,3.15454 -6.63306,2.96558 C-6.36011,2.77661 -6.08366,2.61214 -5.80371,2.47217 C-5.74772,2.52816 -5.68823,2.56315 -5.62524,2.57715 C-5.56226,2.59115 -5.50277,2.62614 -5.44678,2.68213 C-5.79671,2.79411 -6.08016,2.93058 -6.29712,3.09155 C-6.51408,3.25252 -6.59456,3.34701 -6.53857,3.375 C-6.3846,3.43099 -6.18514,3.54647 -5.94019,3.72144 C-5.69523,3.8964 -5.43278,4.07487 -5.15283,4.25684 C-4.87288,4.4388 -4.59644,4.61727 -4.32349,4.79224 C-4.05054,4.9672 -3.80908,5.06868 -3.59912,5.09668 C-3.51514,5.09668 -3.43115,5.0022 -3.34717,4.81323 C-3.26318,4.62427 -3.20719,4.40381 -3.1792,4.15186 C-2.60531,4.48779 -1.98242,4.86572 -1.31055,5.28564 C-0.638672,5.70557 0.0611979,6.14648 0.789063,6.6084 C0.411133,6.72038 0.0437012,6.82536 -0.313232,6.92334 C-0.670166,7.02132 -1.0236,7.09831 -1.37354,7.1543 L2.7627,7.19629 M-1.33154,11.5005 C-1.17757,11.5565 -1.0096,11.5775 -0.827637,11.5635 C-0.645671,11.5495 -0.470703,11.5145 -0.302734,11.4585 C-0.470703,11.7804 -0.708659,11.8924 -1.0166,11.7944 C-1.22656,11.7104 -1.35954,11.6125 -1.41553,11.5005 L-1.33154,11.5005 M-8.89014,10.3877 C-9.1001,10.3317 -9.23307,10.2127 -9.28906,10.0308 C-9.13509,10.0588 -8.96012,10.0728 -8.76416,10.0728 C-8.5682,10.0728 -8.35124,10.0448 -8.11328,9.98877 C-8.26725,10.3387 -8.5262,10.4717 -8.89014,10.3877 M-10.1919,6.16748 C-10.2199,6.30745 -10.2409,6.46493 -10.2549,6.63989 C-10.2689,6.81486 -10.3039,7.01432 -10.3599,7.23828 C-10.4438,7.64421 -10.5278,7.99064 -10.6118,8.27759 C-10.6958,8.56453 -10.7658,8.69401 -10.8218,8.66602 C-10.8778,8.66602 -10.8918,8.51554 -10.8638,8.2146 C-10.8358,7.91366 -10.7938,7.56022 -10.7378,7.1543 C-10.6818,6.93034 -10.6328,6.73787 -10.5908,6.5769 C-10.5488,6.41593 -10.4998,6.26546 -10.4438,6.12549 L-10.4858,6.12549 C-11.0877,5.95752 -11.4167,5.76855 -11.4727,5.55859 C-11.5286,5.36263 -11.2277,5.15267 -10.5698,4.92871 C-10.6258,4.77474 -10.6818,4.63477 -10.7378,4.50879 C-10.7938,4.38281 -10.8498,4.23584 -10.9058,4.06787 C-11.0597,3.63395 -11.1577,3.25952 -11.1997,2.94458 C-11.2417,2.62964 -11.2347,2.45817 -11.1787,2.43018 C-11.1227,2.40218 -11.0142,2.53166 -10.8533,2.8186 C-10.6923,3.10555 -10.5418,3.46598 -10.4019,3.8999 C-10.3459,4.06787 -10.3039,4.22884 -10.2759,4.38281 C-10.2479,4.53678 -10.2059,4.69076 -10.1499,4.84473 C-9.88395,4.84473 -9.69499,4.9707 -9.58301,5.22266 C-9.23307,5.13867 -8.74316,5.06868 -8.11328,5.0127 C-7.63737,4.95671 -7.22445,4.94271 -6.87451,4.9707 C-6.52458,4.9987 -6.34961,5.05469 -6.34961,5.13867 C-6.32161,5.22266 -6.48958,5.29964 -6.85352,5.36963 C-7.21745,5.43962 -7.63737,5.5026 -8.11328,5.55859 C-8.68717,5.62858 -9.16309,5.62858 -9.54102,5.55859 C-9.56901,5.71257 -9.632,5.84554 -9.72998,5.95752 C-9.82796,6.0695 -9.98193,6.13949 -10.1919,6.16748 "/>
</g>

<g fill="#3d97f1" fill-opacity="1" stroke="none" transform="matrix(1,0,0,1,0,0)"
font-family="MS Shell Dlg 2" font-size="7.8" font-weight="400" font-style="normal" 
>
</g>
</g>
</svg>
